gama.ui.shared/icons_svg/dark/gaml/_agent.svg

<svg height="18" viewBox="-849.587 -2833.086 24 18" width="24" xmlns="http://www.w3.org/2000/svg"><path d="m-841.2846-2823.3812 2.595 1.1775c.6675.3075 1.1025.975 1.1025 1.71v.5325c0 1.035-.84 1.875-1.875 1.875h-8.25c-1.035 0-1.875-.84-1.875-1.875v-.5325c0-.735.4275-1.4025 1.1025-1.71l2.595-1.1775c-.8775-.69-1.44-1.755-1.44-2.955 0-2.07 1.68-3.75 3.75-3.75s3.75 1.68 3.75 3.75c0 1.2-.5625 2.2725-1.44 2.955zm-3.84.4725-3.06 1.395c-.405.18-.66.585-.66 1.0275v.5325c0 .6225.5025 1.125 1.125 1.125h8.25c.6225 0 1.125-.5025 1.125-1.125v-.5325c0-.4425-.255-.84-.66-1.0275l-3.06-1.395c-.465.21-.9825.3225-1.53.3225s-1.065-.1125-1.53-.3225zm1.53-.4275c1.6575 0 3-1.3425 3-3s-1.3425-3-3-3-3 1.3425-3 3 1.3425 3 3 3z" fill="#999"/></svg>

<?xml version="1.0" encoding="UTF-8" standalone="no"?>
<!DOCTYPE svg PUBLIC "-//W3C//DTD SVG 1.1//EN" "http://www.w3.org/Graphics/SVG/1.1/DTD/svg11.dtd">
<svg xmlns:dc="http://purl.org/dc/elements/1.1/" xmlns:xl="http://www.w3.org/1999/xlink" version="1.1" xmlns="http://www.w3.org/2000/svg" viewBox="-849.5871 -2833.0862 24 18" width="24" height="18">
  <defs/>
  <g id="SOURCES" stroke-dasharray="none" stroke="none" stroke-opacity="1" fill="none" fill-opacity="1">
    <title>SOURCES</title>
    <g id="SOURCES_New">
      <title>New</title>
      <g id="Group_10462">
        <g id="Graphic_10117"/>
        <g id="Group_10027">
          <title>user</title>
          <g id="Graphic_10028">
            <path d="M -841.2846 -2823.3812 L -838.6896 -2822.2037 C -838.0221 -2821.8962 -837.5871 -2821.2287 -837.5871 -2820.4937 L -837.5871 -2819.9612 C -837.5871 -2818.9262 -838.4271 -2818.0862 -839.4621 -2818.0862 L -847.7121 -2818.0862 C -848.7471 -2818.0862 -849.5871 -2818.9262 -849.5871 -2819.9612 L -849.5871 -2820.4937 C -849.5871 -2821.2287 -849.1596 -2821.8962 -848.4846 -2822.2037 L -845.8896 -2823.3812 C -846.7671 -2824.0712 -847.3296 -2825.1362 -847.3296 -2826.3362 C -847.3296 -2828.4062 -845.6496 -2830.0862 -843.5796 -2830.0862 C -841.5096 -2830.0862 -839.8296 -2828.4062 -839.8296 -2826.3362 C -839.8296 -2825.1362 -840.3921 -2824.0637 -841.2696 -2823.3812 Z M -845.1246 -2822.9087 L -848.1846 -2821.5137 C -848.5896 -2821.3337 -848.8446 -2820.9287 -848.8446 -2820.4862 L -848.8446 -2819.9537 C -848.8446 -2819.3312 -848.3421 -2818.8287 -847.7196 -2818.8287 L -839.4696 -2818.8287 C -838.8471 -2818.8287 -838.3446 -2819.3312 -838.3446 -2819.9537 L -838.3446 -2820.4862 C -838.3446 -2820.9287 -838.5996 -2821.3262 -839.0046 -2821.5137 L -842.0646 -2822.9087 C -842.5296 -2822.6987 -843.0471 -2822.5862 -843.5946 -2822.5862 C -844.1421 -2822.5862 -844.6596 -2822.6987 -845.1246 -2822.9087 Z M -843.5946 -2823.3362 C -841.9371 -2823.3362 -840.5946 -2824.6787 -840.5946 -2826.3362 C -840.5946 -2827.9937 -841.9371 -2829.3362 -843.5946 -2829.3362 C -845.2521 -2829.3362 -846.5946 -2827.9937 -846.5946 -2826.3362 C -846.5946 -2824.6787 -845.2521 -2823.3362 -843.5946 -2823.3362 Z" fill="#999"/>
          </g>
        </g>
      </g>
    </g>
  </g>
</svg>
